packages/design-assets/icons/12px/Chevrons/Double Left.svg

<?xml version="1.0" encoding="UTF-8"?>
<svg width="12px" height="12px" viewBox="0 0 12 12" version="1.1" xmlns="http://www.w3.org/2000/svg" xmlns:xlink="http://www.w3.org/1999/xlink">
    <!-- Generator: Sketch 54.1 (76490) - https://sketchapp.com -->
    <title>Icons/12px/Chevrons/Double Left</title>
    <desc>Created with Sketch.</desc>
    <g id="Icons/12px/Chevrons/Double-Left" stroke="none" stroke-width="1" fill="none" fill-rule="evenodd">
        <path d="M3.41421356,6 L5.70710678,8.29289322 C6.09763107,8.68341751 6.09763107,9.31658249 5.70710678,9.70710678 C5.31658249,10.0976311 4.68341751,10.0976311 4.29289322,9.70710678 L1.29289322,6.70710678 C0.902368927,6.31658249 0.902368927,5.68341751 1.29289322,5.29289322 L4.29289322,2.29289322 C4.68341751,1.90236893 5.31658249,1.90236893 5.70710678,2.29289322 C6.09763107,2.68341751 6.09763107,3.31658249 5.70710678,3.70710678 L3.41421356,6 Z M8.41421356,6 L10.7071068,8.29289322 C11.0976311,8.68341751 11.0976311,9.31658249 10.7071068,9.70710678 C10.3165825,10.0976311 9.68341751,10.0976311 9.29289322,9.70710678 L6.29289322,6.70710678 C5.90236893,6.31658249 5.90236893,5.68341751 6.29289322,5.29289322 L9.29289322,2.29289322 C9.68341751,1.90236893 10.3165825,1.90236893 10.7071068,2.29289322 C11.0976311,2.68341751 11.0976311,3.31658249 10.7071068,3.70710678 L8.41421356,6 Z" id="i-12-chevron-double-left" fill="#818F99"></path>
    </g>
</svg>

<svg width="12" height="12" xmlns="http://www.w3.org/2000/svg"><path d="M3.414 6l2.293 2.293a1 1 0 0 1-1.414 1.414l-3-3a1 1 0 0 1 0-1.414l3-3a1 1 0 0 1 1.414 1.414L3.414 6zm5 0l2.293 2.293a1 1 0 1 1-1.414 1.414l-3-3a1 1 0 0 1 0-1.414l3-3a1 1 0 0 1 1.414 1.414L8.414 6z" fill="#818F99" fill-rule="evenodd"/></svg>
